www/assets/icons/crop_7_5.svg

<svg xmlns="http://www.w3.org/2000/svg" width="24" height="24" viewBox="0 0 24 24" fill='currentColor'><path d="M19 5H5c-1.1 0-2 .9-2 2v10c0 1.1.9 2 2 2h14c1.1 0 2-.9 2-2V7c0-1.1-.9-2-2-2m0 12H5V7h14z"/></svg>

<svg width="24" height="24" viewBox="0 0 24 24" xmlns="http://www.w3.org/2000/svg" fill='currentColor'><path d="M19 5H5C3.9 5 3 5.9 3 7V17C3 18.1 3.9 19 5 19H19C20.1 19 21 18.1 21 17V7C21 5.9 20.1 5 19 5ZM19 17H5V7H19V17Z"/></svg>
